X:451
T:McElligott's Fancy
C:McElligott
M:C|
L:1/8
K:D
F3/2G/|"D"A3/2F/A3/2d/ "G"B3/2G/B3/2d/|"D"A3/2F/A3/2d/ "Bm"f2 e3/2d/|\
"A"c3/2e/g3/2f/ e3/2d/c3/2d/|(3efe (3dcB A2 F3/2G/|
"D"A3/2F/A3/2d/ "G"B3/2G/B3/2d/|"D"A3/2F/A3/2d/ "Bm"f2 e3/2d/|\
"A"c3/2e/g3/2f/ e3/2d/c3/2e/|"D"d2 f2 d2:||:e3/2f/|\
"A"g3/2f/g3/2e/ c3/2A/B3/2c/|"D"d3/2c/d3/2e/ f2 e3/2f/|
"A"g3/2f/g3/2e/ c3/2A/B3/2c/|"D"(3dfe (3dcB A2 F3/2G/|\
"D"A3/2F/A3/2d/ "G"B3/2G/B3/2d/|"D"A3/2F/A3/2d/ "Bm"f2 e3/2d/|\
"A"c3/2e/g3/2f/ e3/2d/c3/2e/|"D"d2 f2 d2:|
